svgs/thin/user-shakespeare.svg

<svg xmlns="http://www.w3.org/2000/svg" viewBox="0 0 448 512"><!--! Font Awesome Pro 6.3.0 by @fontawesome - https://fontawesome.com License - https://fontawesome.com/license (Commercial License) Copyright 2023 Fonticons, Inc. --><path d="M256 140c6.627 0 12-5.373 12-12S262.6 116 256 116S244 121.4 244 128S249.4 140 256 140zM337.7 328.7C322.9 313.6 302 304 278.7 304H169.3c-23.35 0-44.26 9.607-59.07 24.73C46.34 349.6 0 409.1 0 480C0 497.7 14.33 512 32 512h384c17.67 0 32-14.29 32-31.96C448 409.1 401.7 349.6 337.7 328.7zM232 320h46.66c35.88 0 65.06 27.52 65.06 61.33v21.11c-19.52-9.906-60.67-27.04-111.7-28.78V320zM104.3 381.3C104.3 347.5 133.5 320 169.3 320H216v53.66c-51.05 1.734-92.2 18.87-111.7 28.78V381.3zM416 496H32c-8.822 0-16-7.178-16-16c0-55.58 31.94-103.4 78.19-127.3c-3.73 8.875-5.912 18.5-5.912 28.63V416c0 6.262 6.902 10.11 12.28 6.766C101.1 422.4 154.4 389.4 224 389.3c69.64 .0508 122.9 33.1 123.4 33.43C352.8 426.1 359.7 422.3 359.7 416v-34.67c0-10.13-2.182-19.76-5.912-28.63C400.1 376.6 432 424.4 432 480C432 488.8 424.8 496 416 496zM224 404c-6.627 0-12 5.373-12 12S217.4 428 224 428s12-5.373 12-12S230.6 404 224 404zM224 452c-6.627 0-12 5.373-12 12S217.4 476 224 476s12-5.373 12-12S230.6 452 224 452zM119.9 255.8H128c4.406 0 8-3.578 8-8s-3.594-8-8-8H119.9c-18.06 0-32.75-14.69-32.75-32.73c0-8.594 3.5-17.03 9.594-23.14C109.2 171.5 116 155 116 137.5V132.6c0-4.547 1.461-8.809 4-12.28V168C120 225.4 166.6 272 224 272s104-46.56 104-104V120.3c2.539 3.473 4 7.734 4 12.28V137.5c0 17.55 6.812 34.02 19.22 46.39c6.094 6.109 9.594 14.55 9.594 23.14c0 18.05-14.69 32.73-32.75 32.73H320c-4.406 0-8 3.578-8 8s3.594 8 8 8h8.062c26.88 0 48.75-21.86 48.75-48.73c0-12.8-5.188-25.36-14.28-34.45C353.2 163.2 348 150.8 348 137.5V132.6c0-14.07-8.158-26.23-20.39-32.43C325.5 44.53 280.1 0 224 0S122.5 44.53 120.4 100.1C108.2 106.3 100 118.5 100 132.6V137.5c0 13.27-5.156 25.72-14.53 35.08C76.38 181.7 71.19 194.2 71.19 207C71.19 233.9 93.06 255.8 119.9 255.8zM136 104C136 55.48 175.5 16 224 16s88 39.48 88 88v64c0 45.84-35.35 83.17-80.16 87.21C231.9 255.1 232 254.1 232 254.8v-32c0-4.422-3.594-8-8-8s-8 3.578-8 8v32c0 .1484 .1484 .2324 .1562 .3789C171.4 251.2 136 213.8 136 168V104zM192 140c6.627 0 12-5.373 12-12S198.6 116 192 116S180 121.4 180 128S185.4 140 192 140zM184 204.4c16.31 0 31.94-10.72 40-17.31c8.062 6.594 23.69 17.31 40 17.31c4.406 0 8-3.578 8-8s-3.594-8-8-8c-13.59 0-29.41-12.75-34.34-17.67C228.1 169.2 226 168.4 224 168.4c-2.039-.002-4.084 .7578-5.656 2.314C213.4 175.7 197.6 188.4 184 188.4c-4.406 0-8 3.578-8 8S179.6 204.4 184 204.4z"/></svg>

<svg xmlns="http://www.w3.org/2000/svg" viewBox="0 0 448 512"><!-- Font Awesome Pro 6.0.0-alpha2 by @fontawesome - https://fontawesome.com License - https://fontawesome.com/license (Commercial License) --><path d="M256 140C262.627 140 268 134.627 268 128S262.627 116 256 116S244 121.373 244 128S249.373 140 256 140ZM337.727 328.732C322.92 313.607 302.004 304 278.656 304H169.344C145.996 304 125.08 313.607 110.273 328.732C46.338 349.574 0 409.086 0 480C0 497.672 14.326 512 32 512H416C433.674 512 448 497.672 448 480C448 409.086 401.662 349.574 337.727 328.732ZM232 320H278.656C314.531 320 343.719 347.516 343.719 381.328V402.438C324.201 392.531 283.047 375.396 232 373.662V320ZM104.281 381.328C104.281 347.516 133.469 320 169.344 320H216V373.662C164.953 375.396 123.799 392.531 104.281 402.438V381.328ZM416 496H32C23.178 496 16 488.822 16 480C16 424.416 47.941 376.643 94.193 352.695C90.463 361.57 88.281 371.197 88.281 381.328V416C88.281 422.262 95.184 426.109 100.563 422.766C101.094 422.438 154.363 389.389 224 389.338C293.637 389.389 346.906 422.438 347.438 422.766C352.816 426.109 359.719 422.262 359.719 416V381.328C359.719 371.197 357.537 361.57 353.807 352.695C400.059 376.643 432 424.416 432 480C432 488.822 424.822 496 416 496ZM224 404C217.373 404 212 409.373 212 416S217.373 428 224 428S236 422.627 236 416S230.627 404 224 404ZM224 452C217.373 452 212 457.373 212 464S217.373 476 224 476S236 470.627 236 464S230.627 452 224 452ZM119.938 255.766H128C132.406 255.766 136 252.188 136 247.766S132.406 239.766 128 239.766H119.938C101.875 239.766 87.188 225.078 87.188 207.031C87.188 198.438 90.688 190 96.781 183.891C109.188 171.516 116 155.047 116 137.5V132.562C116 128.016 117.461 123.754 120 120.281V168C120 225.438 166.562 272 224 272S328 225.438 328 168V120.281C330.539 123.754 332 128.016 332 132.563V137.5C332 155.047 338.812 171.516 351.219 183.891C357.312 190 360.812 198.437 360.812 207.031C360.812 225.078 346.125 239.766 328.062 239.766H320C315.594 239.766 312 243.344 312 247.766S315.594 255.766 320 255.766H328.062C354.938 255.766 376.812 233.906 376.812 207.031C376.812 194.234 371.625 181.672 362.531 172.578C353.156 163.219 348 150.766 348 137.5V132.562C348 118.49 339.842 106.328 327.609 100.135C325.531 44.529 280.113 0 224 0S122.469 44.529 120.391 100.135C108.158 106.328 100 118.49 100 132.562V137.5C100 150.766 94.844 163.219 85.469 172.578C76.375 181.672 71.188 194.234 71.188 207.031C71.188 233.906 93.062 255.766 119.938 255.766ZM136 104C136 55.477 175.477 16 224 16S312 55.477 312 104V168C312 213.838 276.648 251.166 231.844 255.207C231.852 255.061 232 254.977 232 254.828V222.828C232 218.406 228.406 214.828 224 214.828S216 218.406 216 222.828V254.828C216 254.977 216.148 255.061 216.156 255.207C171.352 251.166 136 213.838 136 168V104ZM192 140C198.627 140 204 134.627 204 128S198.627 116 192 116S180 121.373 180 128S185.373 140 192 140ZM184 204.406C200.312 204.406 215.938 193.688 224 187.094C232.062 193.688 247.688 204.406 264 204.406C268.406 204.406 272 200.828 272 196.406S268.406 188.406 264 188.406C250.406 188.406 234.594 175.656 229.656 170.734C228.084 169.178 226.039 168.418 224 168.42C221.961 168.418 219.916 169.178 218.344 170.734C213.406 175.656 197.594 188.406 184 188.406C179.594 188.406 176 191.984 176 196.406S179.594 204.406 184 204.406Z"/></svg>
